X:284
T: BIN ALBEN E WERTHI TOCHTER GSY
N: E0879
O: Europa, Mitteleuropa, Schweiz
R: Hochzeits -, Ehestands - Lied
M: 2/4
L: 1/16
K: A
E2 | A2AGA2B2 | =c2A2=G2
Bc | d2=c2B2A2 | =c2B2A2
cB | A2AB=c2A2 | A=GFGE2
E2 | A2AGA2B2 | =c2A2=G2
Bc | d2=c2B2A2 | =c2B2A2
cB | A2AB=c2A2 | A=GFGE4 |
e4d4 | =c4=G4 |
c2ccd2dd | e2e2d2
Bd | e2=c2c2Bc | d2B2B2
dB | =c2A2ABcA | B=cBAG2
E2 | A3B=c2d2 | ede=fe2
d2 | =cBAcBAGB | A4z2

@@@ Tune index: 4597
